svg/ma.svg

<?xml version="1.0" encoding="UTF-8"?>
<svg xmlns="http://www.w3.org/2000/svg" width="900" height="600">
<rect width="900" height="600" style="fill:#c1272d"/>
<path d="M 449.96875,200 427.53125,269.28125 354.75,269.34375 413.59375,312.15625 391.15625,381.5 C 406.32078,370.37811 433.78167,350.44542 450,338.6875 L 508.90625,381.46875 486.40625,312.1875 545.25,269.3125 472.53125,269.3125 449.96875,200 z M 449.96875,247.4375 457.125,269.28125 442.875,269.3125 449.96875,247.4375 z M 422.75,283.9375 418.375,297.53125 399.78125,284 422.75,283.9375 z M 438.125,283.9375 461.875,283.9375 469.21875,306.5625 450,320.5625 430.78125,306.5625 438.125,283.9375 z M 477.25,283.9375 500.1875,283.9375 481.65625,297.53125 477.25,283.9375 z M 426.03125,321.25 437.59375,329.59375 419,343.125 426.03125,321.25 z M 474.03125,321.25 481.0625,343.125 462.5,329.625 462.5,329.59375 474.03125,321.25 z" id="star" style="fill:#006233"/>
</svg>

<?xml version="1.0" encoding="UTF-8"?>
<svg width="900" height="600" xmlns="http://www.w3.org/2000/svg">
  <rect width="900" height="600" fill="#c1272d"/>
  <path id="star" d="m449.97 200-22.438 69.281-72.781 0.0625 58.844 42.812-22.438 69.344c15.165-11.122 42.625-31.055 58.844-42.812l58.906 42.781-22.5-69.281 58.844-42.875h-72.719l-22.562-69.312zm0 47.438 7.1562 21.844-14.25 0.03125 7.0938-21.875zm-27.219 36.5-4.375 13.594-18.594-13.531 22.969-0.0625zm15.375 0h23.75l7.3438 22.625-19.219 14-19.219-14 7.3438-22.625zm39.125 0h22.938l-18.531 13.594-4.4062-13.594zm-51.219 37.312 11.562 8.3438-18.594 13.531 7.0312-21.875zm48 0 7.0312 21.875-18.562-13.5v-0.03125l11.531-8.3438z" fill="#006233"/>
</svg>
